X: 1
T: Violet Tulloch Queen of Lerwick
C: Phil Cunningham
R: air
Z: 2021 John Chambers <jc:trillian.mit.edu>
S: Page from Concord Slow Scottish Session collection
M: 6/8
L: 1/8
K: D
|:\
"D"(vA3B) (AF3) | G3A ce3 | (d3F)(B2d2) | (A3G) (GF3) ||\
vE3F G2A2 | (A3c) (e2g2) | (f3A) (f2e2) |1 d6 z2 :|2 d7 vf/g/ ||
v(a3b) (a2g2) | (f3A) (f2e2) | (d3e) (c2A2) | (B3A) A4 ||\
v(a3b) (a2e2) | (g3f) (c2d2) | (Bg3) (ca3) | d7 vf/g/ |]
v(a3b) (a2g2) | (f3A) (f2e2) | (d3B) (g2f2) | (f3e) (e2f2) ||\
(vA3B) (AF3) | G3c eg3 | (f3A) (f2e2) | d6 z2 |]

